svg/black/bab.svg

<?xml version="1.0" encoding="UTF-8"?>
<svg width="32px" height="32px" viewBox="0 0 32 32" version="1.1" xmlns="http://www.w3.org/2000/svg" xmlns:xlink="http://www.w3.org/1999/xlink">
    <!-- Generator: Sketch 52.5 (67469) - http://www.bohemiancoding.com/sketch -->
    <title>svg/black/bab</title>
    <desc>Created with Sketch.</desc>
    <g id="black/bab" stroke="none" stroke-width="1" fill="none" fill-rule="evenodd">
        <path d="M16,32 C7.163444,32 0,24.836556 0,16 C0,7.163444 7.163444,0 16,0 C24.836556,0 32,7.163444 32,16 C32,24.836556 24.836556,32 16,32 Z M22.77,13.95 L27.64,13.95 L28,11.95 L23.29,11.95 C22.3614382,11.9788876 21.4614175,12.2777362 20.7,12.81 C20.42,11.81 17.7,11.95 17.7,11.95 L18.06,9.95 L17,9.95 L16.64,11.95 L15.53,11.95 L15.84,9.95 L14.69,9.95 L14.27,11.95 L13.08,11.95 L12.47,15.07 L11.66,12.01 L9,12.01 L4,19.36 L8.12,19.36 L8.54,17.41 L7.7,17.41 L10.1,13.9 L11,17.43 L10.1,17.43 L9.71,19.36 L12.77,19.36 L12.52,20.7 L13.72,20.7 L14,19.36 L15,19.36 L14.75,20.7 L16,20.7 L16.25,19.36 L17.81,19.36 C18.5273348,19.2786509 19.1912773,18.9413539 19.68,18.41 C20.2626086,18.9996601 21.0513016,19.3402321 21.88,19.36 L26.59,19.36 L26.9,17.41 L22.67,17.41 C19.76,17.36 21,13.93 22.77,13.95 Z M17.48,17.36 L14.36,17.36 L14.61,16.41 L17.61,16.41 C18.37,16.46 18.12,17.36 17.48,17.36 Z M17.95,14.8 L14.83,14.8 L15.08,13.85 L18.08,13.85 C18.84,13.9 18.56,14.84 17.95,14.84 L17.95,14.8 Z" id="Combined-Shape" fill="#000000" fill-rule="nonzero"></path>
    </g>
</svg>

<svg width="32" height="32" viewBox="0 0 32 32" xmlns="http://www.w3.org/2000/svg"><path d="M16 32C7.163 32 0 24.837 0 16S7.163 0 16 0s16 7.163 16 16-7.163 16-16 16zm6.77-18.05h4.87l.36-2h-4.71a4.78 4.78 0 0 0-2.59.86c-.28-1-3-.86-3-.86l.36-2H17l-.36 2h-1.11l.31-2h-1.15l-.42 2h-1.19l-.61 3.12-.81-3.06H9l-5 7.35h4.12l.42-1.95H7.7l2.4-3.51.9 3.53h-.9l-.39 1.93h3.06l-.25 1.34h1.2l.28-1.34h1l-.25 1.34H16l.25-1.34h1.56a3 3 0 0 0 1.87-.95 3.2 3.2 0 0 0 2.2.95h4.71l.31-1.95h-4.23c-2.91-.05-1.67-3.48.1-3.46zm-5.29 3.41h-3.12l.25-.95h3c.76.05.51.95-.13.95zm.47-2.56h-3.12l.25-.95h3c.76.05.48.99-.13.99v-.04z"/></svg>
